usr/share/icons/biglinux-icons-material-dark/16/actions/view-financial-account-investment-security.svg

<svg version="1.1" viewBox="0 0 16 16" xmlns="http://www.w3.org/2000/svg"><style type="text/css" id="current-color-scheme">.ColorScheme-Text { color: #dedede; }</style><style type="text/css" id="current-color-scheme">.ColorScheme-PositiveText { color: #27ae60; }</style>
    <path d="m9.001953 1.9980469-4.001953 4.0019531h-1.996094v1h2.410156l3.589844-3.5898437 2.123047 2.1230468 0.0059-0.00391 0.0039 0.00391 2.828125-2.828125c0.0029 5e-3 -0.707066-0.7070312-0.707066-0.7070312l-2.125 2.125-2.126953-2.125-0.0019 0.00195z" fill="currentColor" class="ColorScheme-PositiveText"/>
    <path d="m2 2v12h12v-2.132812c-0.958201-0.953844-1.913095-1.9111424-2.869141-2.867188l-0.0039 0.00391-0.005865-0.00391-2.1230471 2.123047-3.1230469-3.123047h-2.875v-6zm1 7h2.4609375l3.5351563 3.535156 0.00195-2e-3 0.00195 2e-3 2.1269532-2.125c0.866385 0.866164 1.726997 1.737981 2.607428 2.589844h-10.734375v-4z" fill="currentColor" class="ColorScheme-Text"/>
</svg>

<svg xmlns="http://www.w3.org/2000/svg" viewBox="0 0 16 16">
<style id="current-color-scheme" type="text/css">
.ColorScheme-Text{color:#dedede}.ColorScheme-PositiveText{color:#27ae60}
</style>
<path fill="currentColor" d="M9.002 1.998 5 6H3.004v1h2.41l3.59-3.59 2.123 2.123.006-.004.004.004 2.828-2.828c.003.005-.707-.707-.707-.707l-2.125 2.125-2.127-2.125L9.004 2z" class="ColorScheme-PositiveText"/>
<path fill="currentColor" d="M2 2v12h12v-2.133Q12.564 10.435 11.13 9l-.003.004L11.121 9l-2.123 2.123L5.875 8H3V2zm1 7h2.46l3.536 3.535.002-.002.002.002 2.127-2.125c.866.866 1.727 1.738 2.607 2.59H3z" class="ColorScheme-Text"/>
</svg>
